X:3079
T:John of Paris
T:Ninety-Five
O:england
M:6/8
L:1/8
Q:1/4=150
C:Trad
K:G
|B2 B BAB | d2 B BAB |c2 e g2 e |d2 B BAB|
c2 A AGA |B2 G G2 B | A2 B A2 B | A2 d d^c=c |
B2 B BAB |d2 B BAB | c2 e g2 e| d2 B BAB |
c2 A AGA | B2 G G2 F|Eed cBA | B2 A G3 |
B2 B Bcd | e2 f g2 a | b2 a gfe|d2 B Bcd |
e2 e ecA | d2 d dBG| c2 A B2 G | F2 e d2 c |
B2 B BAB | d2 B BAB | c2 e g2 e | d2 B BAB |
c2 A AGA | B2 G G2 F | Eed cBA | B2 A G3||


